!!!COM: Bach, Johann Sebastian
!!!OPR: Joh. Seb. Bachs vierstimmige Choralgesänge
!!!XEN: Four-part Chorales
!!!OTL: Chorale 113. Ihr Gestirn', ihr hohen Lüfte
!!!SCT: BWV 366
!!!SCA: Thematisch-systematisches Verzeichnis der musikalischen Werke Johann Sebastian Bach: Bach-Werke-Verzeichnis (Schmieder)
!!!YOR: Bach Gesellschaft Edition xxxix
!!!ENC: Steven Rasmussen
!!!CDT: 1685/3//-1750/7/28/
!!!OCY: Deutschland
!!!YEC: Copyright (c) 1994, 2000 Center for Computer Assisted Research in the Humanities
!!!YEM: Rights to all derivative editions reserved
!!!YEN: United States of America
**kern	**silbe	**kern	**silbe	**kern	**silbe	**kern	**silbe
*I:[BASSO]	*I:[BASSO]	*I:[TENORE]	*I:[TENORE]	*I:[ALTO]	*I:[ALTO]	*I:[SOPRANO]	*I:[SOPRANO]
*>[A,A,B]	*	*>[A,A,B]	*	*>[A,A,B]	*	*>[A,A,B]	*
*>A	*	*>A	*	*>A	*	*>A	*
*clefF4	*	*clefGv2	*	*clefG2	*	*clefG2	*
*k[b-]	*	*k[b-]	*	*k[b-]	*	*k[b-]	*
*d:	*	*d:	*	*d:	*	*d:	*
*M3/4	*	*M3/4	*	*M3/4	*	*M3/4	*
=1-	=1-	=1-	=1-	=1-	=1-	=1-	=1-
8DL	.	8FL	.	2A	.	2d	Ihrtie-
8E	.	8GJ	.	.	.	.	.
8F	.	4A	.	.	.	.	.
8GJ	.	.	.	.	.	.	.
8FL	.	4G	.	4c#	.	4e	Ge--fes
8EJ	.	.	.	.	.	.	.
=2	=2	=2	=2	=2	=2	=2	=2
4D	.	2A	.	2d	.	2f	-stirn',Rund,
8CL	.	.	.	.	.	.	.
8BB-J	.	.	.	.	.	.	.
8AAL	.	4B-	.	4e	.	4g	ihrihr
8GGJ	.	.	.	.	.	.	.
=3	=3	=3	=3	=3	=3	=3	=3
8FFL	.	4c	.	4.f	.	2a	ho-dunk-
8GG	.	.	.	.	.	.	.
8FF	.	8dL	.	.	.	.	.
8EEJ	.	8eJ	.	8g	.	.	.
4DD	.	4f	.	4a	.	4dd	-hen-len
=4	=4	=4	=4	=4	=4	=4	=4
2AA	.	2e	.	2a	.	2cc#	LÃ¼f-KlÃ¼f-
4AA;	.	4e;	.	4a;	.	4cc#;	-te,-te,
=5	=5	=5	=5	=5	=5	=5	=5
8DL	.	2f	.	2a	.	2dd	unddie
8E	.	.	.	.	.	.	.
8F	.	.	.	.	.	.	.
8EJ	.	.	.	.	.	.	.
8DL	.	4e	.	4a	.	4ee	du,der
8C#J	.	.	.	.	.	.	.
=6	=6	=6	=6	=6	=6	=6	=6
[2.D	lich-Wie-	8dL	.	4.a	lich-Wie-	2.ff	lich-Wie-
.	.	8c#	.	.	.	.	.
.	.	8d	.	.	.	.	.
.	.	8eJ	.	8g	.	.	.
.	.	8dL	.	8fL	-tes-der-	.	.
.	.	8cnJ	.	8eJ	.	.	.
=7	=7	=7	=7	=7	=7	=7	=7
8D]	.	8B-L	.	2f	Fir--hall	4f	-tes-der-
8C	-tes-der-	8AJ	.	.	.	.	.
4BB-	Fir--hall	4d	.	.	.	4.g	Fir--hall
4C	-ma-zer-	8.cL	.	4e	-ma-zer-	.	.
.	.	.	.	.	.	8g	-ma-zer-
.	.	16B-Jk	.	.	.	.	.
=8	=8	=8	=8	=8	=8	=8	=8
2.FF;/xx	-ment;-trennt.	2.A;/xx	.	2.c;/xx	-ment;-trennt.	2.f;/xx	-ment;-trennt.
=9:|!	=9:|!	=9:|!	=9:|!	=9:|!	=9:|!	=9:|!	=9:|!
*>B	*	*>B	*	*>B	*	*>B	*
4C	.	2c	Jauch-	4e	Jauch-	2g	Jauch-
4D	.	.	.	4f	-zet	.	.
4E	.	4c	-zet	[4g	frÃ¶h-	4g	-zet
=10	=10	=10	=10	=10	=10	=10	=10
4F	.	4.c	frÃ¶h-	8g]	.	2a	frÃ¶h-
.	.	.	.	4f	.	.	.
4G	.	.	.	.	.	.	.
.	.	8B-	.	8e	.	.	.
4A	.	4A	-lich,	4f	-lich,	4cc	-lich,
=11	=11	=11	=11	=11	=11	=11	=11
4G	.	2d	.	4f	.	2b-	lasst
4GG	.	.	.	8eL	.	.	.
.	.	.	.	8dJ	.	.	.
4C	.	4c	.	4e	.	4g	das
=12	=12	=12	=12	=12	=12	=12	=12
2F	.	2c	.	2f	.	2a	Sin-
4F;	.	4c;	.	4f;	.	4a;	-gen
=13	=13	=13	=13	=13	=13	=13	=13
4F	.	2f	.	2a	.	2cc	jetzt
8FFL	.	.	.	.	.	.	.
8GGJ	.	.	.	.	.	.	.
4AA	.	8fL	.	8aL	.	4cc	bis
.	.	8e-J	.	8gJ	.	.	.
=14	=14	=14	=14	=14	=14	=14	=14
4BB-	.	2d	.	8fL	.	2dd	durch
.	.	.	.	8e	.	.	.
4B-	.	.	.	8f	.	.	.
.	.	.	.	8gJ	.	.	.
4A	.	4c	.	4a	.	4ff	die
=15	=15	=15	=15	=15	=15	=15	=15
4G	.	4B-	.	8b-L	.	4ee	Wol-
.	.	.	.	8g	.	.	.
4G#	.	4Bn	.	8f	.	4dd	.
.	.	.	.	8eJ	.	.	.
4A	.	4A	.	8eL	.	4cc#	-ken
.	.	.	.	8gJ	.	.	.
=16	=16	=16	=16	=16	=16	=16	=16
2D	.	2A	.	2f#	.	2dd	drin-
4D;	.	4A;	.	4f#;	.	4dd;	-gen.
==|!	==|!	==|!	==|!	==|!	==|!	==|!	==|!
*-	*-	*-	*-	*-	*-	*-	*-
!!!RWG: Key is interpreted using the Humdrum key tool.
!!!URL-pdf: https://s9.imslp.org/files/imglnks/usimg/7/7a/IMSLP04155-Bach_-_BGA_253-438.pdf#page=62 	Bach-Gesellschaft Ausgabe, Band 39 (pp.175-276) Leipzig: Breitkopf und Härtel, 1892. Plate B.W. XXXIX.
!!!END: 1994/07/13
!!!EMD: Converted from MuseData to Humdrum Dec 19, 2000, by Andreas Kornstaedt using muse2kern.
!!!EED: Craig Stuart Sapp
!!!EEV: 2024/03/31
!!!filter-keyboard: satb2gs
!!!title: @{OTL} (@{SCT})
